themes/my-theme/source/img/business/rocket.svg

<svg width="109" height="109" viewBox="0 0 109 109" fill="none" xmlns="http://www.w3.org/2000/svg">
<path d="M51.1722 87.9338C50.3405 87.1025 48.9924 87.1029 48.1613 87.9343L42.1408 93.9569C41.3097 94.7885 41.3099 96.1365 42.1412 96.9676C42.973 97.7988 44.321 97.7987 45.1521 96.9672L51.1727 90.9445C52.0038 90.113 52.0036 88.765 51.1722 87.9338Z" fill="#4700AB"/>
<path d="M21.0654 57.8278C20.2343 56.9963 18.8865 56.9963 18.0547 57.8274L12.032 63.8479C11.2005 64.679 11.2003 66.0271 12.0314 66.8586C12.8623 67.6897 14.2101 67.6906 15.0421 66.859L21.0647 60.8385C21.8963 60.0074 21.8965 58.6594 21.0654 57.8278Z" fill="#4700AB"/>
<path d="M36.12 90.9468C35.2891 90.1154 33.9409 90.1154 33.1093 90.9466L18.6881 105.366C17.8566 106.197 17.8566 107.545 18.6879 108.376C19.5188 109.208 20.8671 109.208 21.6986 108.377L36.1198 93.9575C36.9514 93.1261 36.9514 91.7781 36.12 90.9468Z" fill="#4700AB"/>
<path d="M19.0888 90.9468C18.2576 90.1154 16.9094 90.1154 16.0781 90.9466L1.65689 105.366C0.825342 106.197 0.825342 107.545 1.65668 108.376C2.48759 109.208 3.83582 109.208 4.66737 108.377L19.0886 93.9575C19.9201 93.1261 19.9201 91.7781 19.0888 90.9468Z" fill="#4700AB"/>
<path d="M18.0532 72.8802C17.2221 72.049 15.8739 72.049 15.0425 72.8804L0.623476 87.3015C-0.207861 88.1331 -0.207861 89.4809 0.623688 90.3124C1.45502 91.1437 2.80305 91.1438 3.63438 90.3122L18.0534 75.891C18.8848 75.0595 18.8848 73.7117 18.0532 72.8802Z" fill="#4700AB"/>
<path d="M59.8432 70.5296L39.005 49.6914L34.7305 61.9806C37.5801 65.7208 44.0275 73.4149 47.0197 74.2698C50.0118 75.1247 56.8154 72.1326 59.8432 70.5296Z" fill="#CBCEFF"/>
<path d="M108.376 0.623576C107.958 0.205673 107.387 -0.0208424 106.794 0.0015111C106.313 0.0187552 94.8521 0.47945 81.2282 5.29481C70.3112 9.1494 61.2116 14.6682 54.1822 21.6978C52.607 23.273 51.0742 24.9433 49.6076 26.6786C42.6571 22.5872 37.0875 23.8701 33.5665 25.7544C25.4594 30.0931 20.4414 41.8736 20.4414 50.2998C20.442 51.1607 20.9609 51.9371 21.7562 52.2665C22.0196 52.3757 22.2963 52.4287 22.5705 52.4287C23.1247 52.4287 23.669 52.2122 24.0763 51.8052C28.3518 47.5297 33.6253 47.7971 35.348 48.0236L36.0935 48.7691C34.6263 52.2605 33.4443 55.7323 32.5774 59.109C32.2645 60.331 32.3701 61.6241 32.8352 62.8069C30.7855 63.7515 28.808 65.1385 27.0861 66.8603C21.6061 72.3405 20.4934 85.696 20.4486 86.2619C20.3997 86.8829 20.6249 87.4943 21.0654 87.9348C21.4663 88.3354 22.0085 88.5583 22.5705 88.5583C22.6263 88.5583 22.6823 88.5562 22.7383 88.5517C23.3041 88.5072 36.66 87.3944 42.14 81.9144C43.8612 80.1932 45.248 78.2159 46.1926 76.1666C47.4448 76.659 48.7337 76.7197 49.8926 76.4227C53.2678 75.556 56.7392 74.3745 60.231 72.9071L60.9766 73.6526C61.2029 75.3755 61.4703 80.649 57.195 84.9241C56.5863 85.5329 56.4041 86.4486 56.7337 87.2439C57.063 88.0395 57.8392 88.5581 58.7003 88.5581C67.1265 88.5581 78.9068 83.5401 83.2455 75.433C85.1298 71.9124 86.4127 66.3428 82.3214 59.3921C84.0558 57.9262 85.7263 56.3934 87.3021 54.8176C94.3318 47.7879 99.8503 38.6883 103.705 27.7722C108.52 14.1476 108.981 2.68648 108.998 2.20535C109.02 1.61458 108.794 1.04169 108.376 0.623576ZM25.2012 45.7207C26.5237 39.3206 30.3649 32.2976 35.5764 29.5083C39.0591 27.6447 42.8658 27.8273 46.9132 30.0429C43.4651 34.5779 40.4674 39.4637 37.9687 44.6231C37.9369 44.6035 37.5537 44.1217 36.8418 43.9612C36.5491 43.895 30.9162 42.6834 25.2012 45.7207ZM39.1293 78.9035C36.2021 81.8308 29.3353 83.3746 24.9951 84.005C25.6257 79.6646 27.1698 72.798 30.0968 69.871C31.7361 68.2318 33.6368 66.9889 35.5472 66.2889L42.7114 73.4531C42.0114 75.3636 40.7688 77.2643 39.1293 78.9035ZM48.835 72.2982C48.2189 72.4559 47.5053 72.2243 46.9748 71.6946C44.2206 68.9405 43.1432 67.863 42.8051 67.5252C42.1852 66.9053 40.6649 65.385 37.307 62.0269C36.7761 61.4949 36.5444 60.7815 36.7018 60.1664C37.3836 57.5108 38.2754 54.7863 39.3599 52.0355L56.9649 69.6404C54.2137 70.7251 51.4895 71.6167 48.835 72.2982ZM79.4921 73.4239C76.7028 78.6353 69.6799 82.4767 63.28 83.7989C65.3206 79.959 65.7704 75.0709 65.0249 72.1068C64.8518 71.4183 64.4026 71.0722 64.3775 71.0315C69.5364 68.5328 74.4221 65.5351 78.9575 62.0869C81.173 66.1348 81.3555 69.9419 79.4921 73.4239ZM84.2919 51.8069C82.3735 53.725 80.3078 55.5782 78.1521 57.3147C72.9699 61.4874 67.2662 65.0218 61.1809 67.8354L41.165 47.8198C43.9786 41.7342 47.513 36.0304 51.6852 30.8489C53.4232 28.6917 55.2762 26.6258 57.1937 24.7085C63.5006 18.4014 71.6402 13.3819 81.3932 9.7687L99.2317 27.6072C95.6189 37.3599 90.5994 45.4996 84.2919 51.8069ZM100.763 23.1171L85.8832 8.23696C93.9903 5.71889 101.043 4.776 104.563 4.43708C104.224 7.95807 103.281 15.0109 100.763 23.1171Z" fill="#4700AB"/>
<circle cx="78.0095" cy="30.99" r="9.18627" fill="#CBCEFF" stroke="#4700AB" stroke-width="3"/>
</svg>

<svg width="109" height="109" fill="none" xmlns="http://www.w3.org/2000/svg"><path d="M51.172 87.934a2.13 2.13 0 0 0-3.01 0l-6.021 6.023a2.13 2.13 0 0 0 3.011 3.01l6.02-6.022a2.13 2.13 0 0 0 0-3.011ZM21.065 57.828a2.129 2.129 0 0 0-3.01 0l-6.023 6.02a2.129 2.129 0 0 0 3.01 3.011l6.023-6.02a2.129 2.129 0 0 0 0-3.011ZM36.12 90.947a2.129 2.129 0 0 0-3.01 0l-14.422 14.419a2.128 2.128 0 1 0 3.01 3.011l14.422-14.42a2.129 2.129 0 0 0 0-3.01ZM19.089 90.947a2.129 2.129 0 0 0-3.01 0L1.656 105.366a2.128 2.128 0 1 0 3.01 3.011l14.422-14.42a2.129 2.129 0 0 0 0-3.01ZM18.053 72.88a2.129 2.129 0 0 0-3.01 0L.623 87.302a2.129 2.129 0 0 0 3.011 3.01l14.42-14.421a2.129 2.129 0 0 0 0-3.01Z" fill="#4700AB"/><path d="M59.843 70.53 39.005 49.69l-4.275 12.29c2.85 3.74 9.298 11.434 12.29 12.289 2.992.855 9.795-2.137 12.823-3.74Z" fill="#CBCEFF"/><path d="M108.376.624a2.122 2.122 0 0 0-1.582-.622c-.481.017-11.942.477-25.566 5.293-10.917 3.854-20.016 9.373-27.046 16.403a81.003 81.003 0 0 0-4.574 4.98c-6.95-4.09-12.52-2.808-16.041-.924-8.108 4.34-13.126 16.12-13.126 24.546a2.13 2.13 0 0 0 3.635 1.505c4.276-4.275 9.55-4.008 11.272-3.781l.745.745c-1.467 3.492-2.649 6.963-3.516 10.34-.313 1.222-.207 2.515.258 3.698-2.05.944-4.027 2.331-5.749 4.053-5.48 5.48-6.593 18.836-6.637 19.402a2.13 2.13 0 0 0 2.29 2.29c.565-.045 13.921-1.158 19.401-6.638 1.721-1.72 3.108-3.698 4.053-5.747 1.252.492 2.54.553 3.7.256 3.375-.867 6.846-2.049 10.338-3.516l.746.746c.226 1.722.493 6.996-3.782 11.271a2.129 2.129 0 0 0 1.505 3.634c8.426 0 20.207-5.018 24.546-13.125 1.884-3.52 3.167-9.09-.925-16.04a81.025 81.025 0 0 0 4.981-4.575c7.03-7.03 12.548-16.13 16.403-27.046 4.815-13.624 5.276-25.086 5.293-25.567a2.126 2.126 0 0 0-.622-1.581ZM25.201 45.72c1.323-6.4 5.164-13.423 10.375-16.213 3.483-1.863 7.29-1.68 11.337.535a86.084 86.084 0 0 0-8.944 14.58c-.032-.02-.415-.501-1.127-.662-.293-.066-5.926-1.278-11.64 1.76ZM39.13 78.903c-2.927 2.928-9.794 4.472-14.134 5.102.63-4.34 2.175-11.207 5.102-14.134 1.64-1.64 3.54-2.882 5.45-3.582l7.164 7.164c-.7 1.91-1.942 3.811-3.582 5.45Zm9.706-6.605c-.616.158-1.33-.074-1.86-.603l-4.17-4.17-5.498-5.498c-.53-.532-.763-1.245-.605-1.86a69.106 69.106 0 0 1 2.658-8.132L56.965 69.64a69.087 69.087 0 0 1-8.13 2.658Zm30.657 1.126c-2.79 5.211-9.812 9.053-16.212 10.375 2.04-3.84 2.49-8.728 1.745-11.692-.173-.689-.622-1.035-.648-1.076a86.111 86.111 0 0 0 14.58-8.944c2.216 4.048 2.399 7.855.535 11.337Zm4.8-21.617a77.283 77.283 0 0 1-6.14 5.508 81.792 81.792 0 0 1-16.971 10.52L41.165 47.82a81.782 81.782 0 0 1 10.52-16.971 77.254 77.254 0 0 1 5.509-6.14C63.5 18.4 71.64 13.382 81.394 9.769l17.838 17.838c-3.613 9.753-8.633 17.893-14.94 24.2Zm16.471-28.69-14.88-14.88c8.107-2.518 15.16-3.461 18.68-3.8-.339 3.521-1.282 10.574-3.8 18.68Z" fill="#4700AB"/><circle cx="78.01" cy="30.99" r="9.186" fill="#CBCEFF" stroke="#4700AB" stroke-width="3"/></svg>
